X:1
T:Title
%%score { 1 | ( 2 3 ) }
L:1/8
Q:1/4=100
M:4/4
K:Eb
V:1 treble nm="Grand Piano"
V:2 bass 
V:3 bass 
V:1
 G2 G>G [DF] E2 G | [GB]2 [GB]>[Ac] [GB]4 | c2 e>c [GB] G2 G | GFFG [DF]4 | G2 G>G [DF] E2 G | %5
w: C.~Austin~Miles * * * * *|||||
 [GB]2 [GB]>[Ac] [GB]4 | e e2 c [GB]GEA | G2 [DF]2 E4 | [GB] [GB]2 [Ac] [GB]GEF | G2 A2 G4 | %10
w: |||||
 [GB] [GB]2 [Ac] [GB][EG] [Ge]2 | dB c2 B4 | [Ge] [Ge]2 [Ac] [GB] G2 G | AGAB c4 | e e2 c [GB]GEA | %15
w: |||||
 G2 [DF]2 E4 |] %16
w: |
V:2
 [E,B,E]2 [E,B,E]>[E,B,E] [B,,A,] [E,G,]2 [E,B,E] | [E,E]2 [E,E]>[E,E] [E,E]4 | %2
 [A,EA]2 [A,CA]>[A,EA][K:bass] [E,E] [E,B,E]2 [E,B,E] | [F,=A,E]2 [F,A,E][F,A,E] [B,,B,]4 | %4
 [E,B,E]2 [E,B,E]>[E,B,E] [B,,A,] [E,G,]2 [E,B,E] | [E,E]2 [E,E]>[E,E] [E,E]4 | %6
 [A,CA] [A,CA]2 [A,EA][K:bass] [E,E][E,B,E][G,B,][A,CE] | [B,E]2 [B,,A,]2 [E,G,]4 | %8
 [E,E] [E,E]2 [E,E] [E,E][E,B,E][E,G,][E,A,E] | [E,B,E]2 [E,CE]2 [E,B,E]4 | %10
 [E,E] [E,E]2 [E,E] [E,E][E,B,] [E,B,]2 | [F,B,F][F,DF] [F,EF]2 [B,DF]4 | %12
 [E,B,] [E,B,]2 [E,E] [E,E] [E,B,E]2 [E,B,E] | [A,E]-[A,B,E][A,CE][A,EG] [A,EA]4 | %14
 [A,CA] [A,CA]2 [A,EA][K:bass] [E,E][E,B,E][G,B,][A,CE] | [B,E]2 [B,,A,]2 [E,G,]4 |] %16
V:3
 x8 | x8 | x4[K:bass] x4 | x8 | x8 | x8 | x4[K:bass] x4 | x8 | x8 | x8 | x8 | x8 | x8 | .C2 z2 z4 | %14
 x4[K:bass] x4 | x8 |] %16

